X:1
T:Title
%%score ( 1 2 3 ) ( 4 5 6 )
L:1/8
M:4/4
K:D
V:1 treble nm="Choir Aahs, Staff"
V:2 treble 
V:3 treble 
V:4 bass nm="Choir Aahs, Staff-1"
V:5 bass 
V:6 bass 
V:1
 [DF]3 [DF] [EA]2 [EA]2 | [Dd]2 [Dd]2 [DA]2 [DA]2 | z2 B2 z4 | [CG]2 [DF]2 [DF]2 [CE]2 | %4
w: By~G.~J.~Elvey * * *||||
 [DF]3 [DF] [DF]2 [DF]2 | [DG]2 [DA]2 [DB]2 [Ec]2 | d4 z4 | [FA]2 [E^G]2 [EA]4 | A4 z4 | %9
w: |||||
 [DF]2 [CE]2 D2 D2 | B4 z4 | G2 z2 z4 | [Ec]3 [Ec] [Dd]2 [DA]2 | [DB]2 [EB]2 [EA]2 [CG]2 | %14
w: |||||
 [DF]2 [Dd]2 [DB]2 [EG]2 | [DF]2 [CE]2 D4 |] %16
w: ||
V:2
 x8 | x8 | [DB]2 DE [FA]2 D2 | x8 | x8 | x8 | D2 z B [E^G]2 [CA]2 | x8 | C2 z A [DA]2 [EG]2 | x8 | %10
 D2 z B [EB]2 [FA]2 | B,C [DF]2 [CE]4 | x8 | x8 | x8 | x8 |] %16
V:3
 x8 | x8 | x8 | x8 | x8 | x8 | z2 F2 z4 | x8 | z2 C2 z4 | x8 | z2 D2 z4 | x8 | x8 | x8 | x8 | x8 |] %16
V:4
 [D,A,]3 [D,A,] [C,A,]2 [C,A,]2 | [B,,F,]2 [B,,F,]2 [F,,A,]2 [F,,A,]2 | G,A,B,C [F,D]2 [G,B,]2 | %3
 [E,G,]2 [D,A,]2 [A,,A,]4 | [D,A,]3 [D,A,] [=C,A,]2 [C,A,]2 | [B,,G,]2 [D,F,]2 G,2 [E,G,]2 | %6
 [F,A,]2 [D,D]2 [E,B,]2 [F,A,]2 | [D,D]2 [E,B,]2 [A,,C]4 | A,2 [G,A,]2 [F,A,]2 [C,A,]2 | A,4 z4 | %10
 G,2 [F,A,]2 [E,G,]2 [^D,F,]2 | z2 A,2 z4 | A,3 [G,A,] [F,A,]2 [D,F,]2 | %13
 G,2 [E,G,]2 [C,A,]2 [A,,A,]2 | [D,A,]2 [F,A,]2 G,2 [G,,B,]2 | A,4 z4 |] %16
V:5
 x8 | x8 | G,,2 G,2 z4 | x8 | x8 | x8 | x8 | x8 | x8 | D,2 z G, [B,,F,]2 [B,,F,]2 | x8 | %11
 [E,G,]2 F,G, A,4 | x8 | x8 | x8 | A,,2 z G, [D,F,]4 |] %16
V:6
 x8 | x8 | x8 | x8 | x8 | x8 | x8 | x8 | x8 | z2 A,,2 z4 | x8 | x8 | x8 | x8 | x8 | z2 A,,2 z4 |] %16

